icons/1_Primary/2Captcha.svg

<svg width="1024" height="1024" viewBox="0 0 1024 1024" fill="none" xmlns="http://www.w3.org/2000/svg">
<g clip-path="url(#clip0_2_4060)">
<path d="M512 1024C794.77 1024 1024 794.77 1024 512C1024 229.23 794.77 0 512 0C229.23 0 0 229.23 0 512C0 794.77 229.23 1024 512 1024Z" fill="#9ABEFF"/>
<path d="M511.34 402.56C619.41 402.56 707.72 490.86 707.72 598.94C707.72 705.7 619.41 794 511.34 794C403.27 794 316.28 705.7 316.28 598.94C316.28 490.87 403.27 402.56 511.34 402.56ZM363.73 294.49C363.73 260.22 390.09 222 441.49 222H586.49C633.94 222 658.98 262.86 658.98 293.17V339.3L612.82 338V295.81C612.82 279.99 599.64 268.13 586.46 268.13H436.22C421.72 268.13 409.86 279.99 409.86 293.13C411.18 307.63 409.86 402.52 409.86 402.52C402.11 406.906 394.627 411.748 387.45 417.02C376.91 425 365 435.51 365 435.51C365 435.51 363.73 330.07 363.73 294.49ZM361.09 598.94C361.09 680.65 428.31 747.87 511.34 747.87C594.37 747.87 661.59 680.65 661.59 598.94C661.59 559.091 645.76 520.875 617.583 492.697C589.406 464.52 551.189 448.69 511.34 448.69C471.491 448.69 433.275 464.52 405.097 492.697C376.92 520.875 361.09 559.091 361.09 598.94ZM511.34 481.64C575.92 481.64 628.64 534.36 628.64 598.94C628.64 662.2 575.92 714.94 511.34 714.94C448.08 714.94 395.34 662.22 395.34 598.94C395.36 534.36 448.08 481.64 511.34 481.64ZM471.8 572.58C471.8 585.76 478.39 598.94 488.93 605.53V663.53H535.06V605.53C544.29 598.94 552.19 585.76 552.19 572.58C552.19 550.17 533.74 533.04 511.33 533.04C500.854 533.072 490.817 537.248 483.41 544.657C476.003 552.065 471.829 562.104 471.8 572.58Z" fill="white"/>
</g>
<defs>
<clipPath id="clip0_2_4060">
<rect width="1024" height="1024" fill="white"/>
</clipPath>
</defs>
</svg>

<svg width="1024" height="1024" fill="none" xmlns="http://www.w3.org/2000/svg"><g clip-path="url(#a)"><path d="M512 1024c282.77 0 512-229.23 512-512S794.77 0 512 0 0 229.23 0 512s229.23 512 512 512Z" fill="#9ABEFF"/><path d="M511.34 402.56c108.07 0 196.38 88.3 196.38 196.38C707.72 705.7 619.41 794 511.34 794s-195.06-88.3-195.06-195.06c0-108.07 86.99-196.38 195.06-196.38ZM363.73 294.49c0-34.27 26.36-72.49 77.76-72.49h145c47.45 0 72.49 40.86 72.49 71.17v46.13l-46.16-1.3v-42.19c0-15.82-13.18-27.68-26.36-27.68H436.22c-14.5 0-26.36 11.86-26.36 25 1.32 14.5 0 109.39 0 109.39a225.273 225.273 0 0 0-22.41 14.5C376.91 425 365 435.51 365 435.51s-1.27-105.44-1.27-141.02Zm-2.64 304.45c0 81.71 67.22 148.93 150.25 148.93s150.25-67.22 150.25-148.93a150.252 150.252 0 0 0-150.25-150.25 150.252 150.252 0 0 0-150.25 150.25Zm150.25-117.3c64.58 0 117.3 52.72 117.3 117.3 0 63.26-52.72 116-117.3 116-63.26 0-116-52.72-116-116 .02-64.58 52.74-117.3 116-117.3Zm-39.54 90.94c0 13.18 6.59 26.36 17.13 32.95v58h46.13v-58c9.23-6.59 17.13-19.77 17.13-32.95 0-22.41-18.45-39.54-40.86-39.54a39.65 39.65 0 0 0-39.53 39.54Z" fill="#fff"/></g><defs><clipPath id="a"><path fill="#fff" d="M0 0h1024v1024H0z"/></clipPath></defs></svg>
